craft2/public/assets/svgicons/branches/calc-01.svg

<svg xmlns="http://www.w3.org/2000/svg" width="34.625" height="46.333" viewBox="0 0 34.625 46.333"><g stroke="#3B3735" stroke-width="2" stroke-linecap="round" stroke-linejoin="round" stroke-miterlimit="10" fill="none"><path d="M32.625 45.333h-30.625c-.552 0-1-.448-1-1v-42.333c0-.552.448-1 1-1h30.625c.552 0 1 .448 1 1v42.333c0 .553-.448 1-1 1z"/><path d="M28.34 14h-22.055c-.552 0-1-.448-1-1v-5.667c0-.552.448-1 1-1h22.055c.552 0 1 .448 1 1v5.667c0 .552-.447 1-1 1z"/><path d="M10.229 23.543h-2.833c-.552 0-1-.448-1-1v-2.833c0-.552.448-1 1-1h2.833c.552 0 1 .448 1 1v2.833c0 .552-.448 1-1 1z"/><path d="M18.729 23.543h-2.833c-.552 0-1-.448-1-1v-2.833c0-.552.448-1 1-1h2.833c.552 0 1 .448 1 1v2.833c0 .552-.448 1-1 1z"/><path d="M27.229 23.543h-2.833c-.552 0-1-.448-1-1v-2.833c0-.552.448-1 1-1h2.833c.552 0 1 .448 1 1v2.833c0 .552-.448 1-1 1z"/><path d="M10.229 31.753h-2.833c-.552 0-1-.448-1-1v-2.833c0-.552.448-1 1-1h2.833c.552 0 1 .448 1 1v2.833c0 .553-.448 1-1 1z"/><path d="M18.729 31.753h-2.833c-.552 0-1-.448-1-1v-2.833c0-.552.448-1 1-1h2.833c.552 0 1 .448 1 1v2.833c0 .553-.448 1-1 1z"/><path d="M27.229 31.753h-2.833c-.552 0-1-.448-1-1v-2.833c0-.552.448-1 1-1h2.833c.552 0 1 .448 1 1v2.833c0 .553-.448 1-1 1z"/><path d="M10.229 40.128h-2.833c-.552 0-1-.448-1-1v-2.833c0-.552.448-1 1-1h2.833c.552 0 1 .448 1 1v2.833c0 .553-.448 1-1 1z"/><path d="M18.729 40.128h-2.833c-.552 0-1-.448-1-1v-2.833c0-.552.448-1 1-1h2.833c.552 0 1 .448 1 1v2.833c0 .553-.448 1-1 1z"/><path d="M27.229 40.128h-2.833c-.552 0-1-.448-1-1v-2.833c0-.552.448-1 1-1h2.833c.552 0 1 .448 1 1v2.833c0 .553-.448 1-1 1z"/></g></svg>

<?xml version="1.0" encoding="utf-8"?>
<!-- Generator: Adobe Illustrator 17.0.0, SVG Export Plug-In . SVG Version: 6.00 Build 0)  -->
<!DOCTYPE svg PUBLIC "-//W3C//DTD SVG 1.1//EN" "http://www.w3.org/Graphics/SVG/1.1/DTD/svg11.dtd">
<svg version="1.1" id="Layer_1" xmlns="http://www.w3.org/2000/svg" xmlns:xlink="http://www.w3.org/1999/xlink" x="0px" y="0px"
	 width="34.625px" height="46.333px" viewBox="0 0 34.625 46.333" enable-background="new 0 0 34.625 46.333" xml:space="preserve">
<g>
	<path fill="none" stroke="#3B3735" stroke-width="2" stroke-linecap="round" stroke-linejoin="round" stroke-miterlimit="10" d="
		M32.625,45.333H2c-0.552,0-1-0.448-1-1V2c0-0.552,0.448-1,1-1h30.625c0.552,0,1,0.448,1,1v42.333
		C33.625,44.886,33.177,45.333,32.625,45.333z"/>
	<path fill="none" stroke="#3B3735" stroke-width="2" stroke-linecap="round" stroke-linejoin="round" stroke-miterlimit="10" d="
		M28.34,14H6.285c-0.552,0-1-0.448-1-1V7.333c0-0.552,0.448-1,1-1H28.34c0.552,0,1,0.448,1,1V13C29.34,13.552,28.893,14,28.34,14z"
		/>
	<g>
		<path fill="none" stroke="#3B3735" stroke-width="2" stroke-linecap="round" stroke-linejoin="round" stroke-miterlimit="10" d="
			M10.229,23.543H7.396c-0.552,0-1-0.448-1-1v-2.833c0-0.552,0.448-1,1-1h2.833c0.552,0,1,0.448,1,1v2.833
			C11.229,23.095,10.781,23.543,10.229,23.543z"/>
		<path fill="none" stroke="#3B3735" stroke-width="2" stroke-linecap="round" stroke-linejoin="round" stroke-miterlimit="10" d="
			M18.729,23.543h-2.833c-0.552,0-1-0.448-1-1v-2.833c0-0.552,0.448-1,1-1h2.833c0.552,0,1,0.448,1,1v2.833
			C19.729,23.095,19.281,23.543,18.729,23.543z"/>
		<path fill="none" stroke="#3B3735" stroke-width="2" stroke-linecap="round" stroke-linejoin="round" stroke-miterlimit="10" d="
			M27.229,23.543h-2.833c-0.552,0-1-0.448-1-1v-2.833c0-0.552,0.448-1,1-1h2.833c0.552,0,1,0.448,1,1v2.833
			C28.229,23.095,27.781,23.543,27.229,23.543z"/>
	</g>
	<g>
		<path fill="none" stroke="#3B3735" stroke-width="2" stroke-linecap="round" stroke-linejoin="round" stroke-miterlimit="10" d="
			M10.229,31.753H7.396c-0.552,0-1-0.448-1-1V27.92c0-0.552,0.448-1,1-1h2.833c0.552,0,1,0.448,1,1v2.833
			C11.229,31.306,10.781,31.753,10.229,31.753z"/>
		<path fill="none" stroke="#3B3735" stroke-width="2" stroke-linecap="round" stroke-linejoin="round" stroke-miterlimit="10" d="
			M18.729,31.753h-2.833c-0.552,0-1-0.448-1-1V27.92c0-0.552,0.448-1,1-1h2.833c0.552,0,1,0.448,1,1v2.833
			C19.729,31.306,19.281,31.753,18.729,31.753z"/>
		<path fill="none" stroke="#3B3735" stroke-width="2" stroke-linecap="round" stroke-linejoin="round" stroke-miterlimit="10" d="
			M27.229,31.753h-2.833c-0.552,0-1-0.448-1-1V27.92c0-0.552,0.448-1,1-1h2.833c0.552,0,1,0.448,1,1v2.833
			C28.229,31.306,27.781,31.753,27.229,31.753z"/>
	</g>
	<g>
		<path fill="none" stroke="#3B3735" stroke-width="2" stroke-linecap="round" stroke-linejoin="round" stroke-miterlimit="10" d="
			M10.229,40.128H7.396c-0.552,0-1-0.448-1-1v-2.833c0-0.552,0.448-1,1-1h2.833c0.552,0,1,0.448,1,1v2.833
			C11.229,39.681,10.781,40.128,10.229,40.128z"/>
		<path fill="none" stroke="#3B3735" stroke-width="2" stroke-linecap="round" stroke-linejoin="round" stroke-miterlimit="10" d="
			M18.729,40.128h-2.833c-0.552,0-1-0.448-1-1v-2.833c0-0.552,0.448-1,1-1h2.833c0.552,0,1,0.448,1,1v2.833
			C19.729,39.681,19.281,40.128,18.729,40.128z"/>
		<path fill="none" stroke="#3B3735" stroke-width="2" stroke-linecap="round" stroke-linejoin="round" stroke-miterlimit="10" d="
			M27.229,40.128h-2.833c-0.552,0-1-0.448-1-1v-2.833c0-0.552,0.448-1,1-1h2.833c0.552,0,1,0.448,1,1v2.833
			C28.229,39.681,27.781,40.128,27.229,40.128z"/>
	</g>
</g>
</svg>
